X:1
T:Eichendorff-Lieder
T:Liebesglück
T:16. Liebesglück
T:Hugo Wolf
T:Eichendorff-Lieder
T:Joseph von Eichendorff (trans. Bernhoff)
T:OpenScore (CC0)
T:OpenScore (CC0)
T:OpenScore (CC0)
C:Hugo Wolf
Z:Joseph von Eichendorff
Z:OpenScore (CC0)
%%score ( 1 2 ) { 3 | 4 }
L:1/8
Q:1/4=100
M:12/8
K:E
V:1 treble nm="Voice"
V:2 treble 
V:3 treble nm="Piano"
V:4 treble 
V:1
"^Sehr lebhaft und drängend" z12 | z12 | z12 | z12 | B B3/2 B/ ^A =A G- G F E D2 =D | %5
w: ||||Ich hab' ein Lieb- chen lieb * recht von Her- zen,|
w: ||||I know a maid- en fair, * and I love her,|
 =d d3/2 d/ c3/2 =c/ B- B d B A2 G | e e3/2 e/ e2 E e e f e2 e- | e e e e2 g d3 d2 ^e | d6 z6 | %9
w: hell- fri- sche Au- gen hat's * wie zwei Ker- zen,|und wo sie spie- lend strei- fen das Feld, ach|* wie so lu- stig glän- zet die|Welt!|
w: her eyes are bright as stars * high a- bove her,|and where they glow, at day- time or night, ah!|* there the world is mer- ry and|bright!|
 F F G A2 B ^B3/2 B/ c ^^c2 d | G G ^A =B2 ^c d d e ^e2 f | =g g3/2 g/ g2 =G g g3/2 g/ g3 | %12
w: Wie in der Wald- nacht zwi- schen den Schlüf- ten|plötz- lich die Tä- ler son- nig sich klüf- ten,|fun- keln die Strö- me, rauscht him- mel- wärts|
w: As when in woods, where dark- ness is hid- ing,|sud- den bright sun, the sha- dows di- vid- ing,|gilds e- very stream- let wak- ens the hart,|
 =g3- g g g (g f2-) f e2 | z2 z ^g3- g f2- f B2 | e3- e z2 z6 | G ^B c d3/2 d/ d d2 ^e d2 d | %16
w: blü- * hen- de Wild- * * nis|so * ist * mein|Herz! *|Wie vom Ge- bir- ge ins Meer zu schau- en,|
w: na- * ture re- joic- * * es,|so * is * my|heart! *|As when from moun- tain height sea- ward gaz- ing,|
 F =B c d2 ^e f f3/2 f/ f2 f | f f3/2 f/ f f3/2 f/ f f f =g3- ||[M:3/8] g z z || %19
w: wie wann der See- falk, han- gend im Blau- en,|zu- ruft der däm- mern- den Erd' wo sie blieb,||
w: light- pin- ioned * her flight heav'n- ward rais- ing,|calls in the twi- light to earth, from a- bove,||
[M:12/8] e ^g2- g2 f e3- e d c | e6- e3- e d2 | e3 z3 z6 | z12 | z12 |] %24
w: so un- * er- mess- * lich ist|rech- * * te|Lieb'!|||
w: so great, * so bound- * less is|heart- * * felt|love!|||
V:2
 x12 | x12 | x12 | x12 | x12 | x12 | x12 | x12 | x12 | x12 | x12 | x12 | x12 | x12 | x12 | x12 | %16
w: ||||||||||||||||
w: ||||||||||||||||
 x2 x d d x x6 | x12 ||[M:3/8] x3 ||[M:12/8] x12 | x12 | x12 | x12 | x12 |] %24
w: ||||||||
w: fal- con||||||||
V:3
!p!!<(! .[AB] [AB]>[AB] .[A=c] [Ac]>[Ac] .[A^c] [Ac]>[Ac] .[Acf] [Acf]>[Acf]!<)! | %1
!p! .[AB] [AB]>[AB]!<(! .[A=c] [Ac]>[Ac] .[A^c] [Ac]>[Ac]!<)!!f! .[cea] [cea]>[cea] | %2
!p! .[AB] [AB]>[AB] .[A=c]"_cresc." [Ac]>[Ac] .[A^c] [Ac]>[Ac] .[Acf] [Acf]>[Acf] | %3
 [cea] [cea]>[cea] [efc'] [efc']>[efc'] [ac'f'] [ac'f']>[ac'f']!ff! [abd'b'] [abd'b']2 | %4
!pp! [GB] [GB]>[GB] [^A^B] [=Ac]>[Ac]!<(! [A=d] [A^d]>[Ge] [Ge] [Ge]>[G^e]!<)! | %5
!mf! [=df] [df]>[df] [df] [df]>[df] [d=fa] [dfa]>[dfa] [Beb] [Beb]>[Beb] | %6
!p! [=dg] [dg]>[dg]!f! [eae'] [eae']>[faf']!p! [dg] [dg]>[dg]!f! [eae'] [eae']>[faf'] | %7
 [=g^a=g'] [gag']>[gag'] [^ge'^g'] [ge'g']>[ge'g'] [gd'g'] [gd'g']>[gd'g'] [^^fc'^^f'] [fc'f']>[fc'f'] | %8
 [g^bg'] [gbg']>[gbg'] [gbg'] [gbg']>[gbg'] [gbg'] [G^Bg]>[GBg] [GBg] !>![^^F,^^F]!>![G,G] | %9
!p! [D^FAd]!<(! [DFAd]>[CEGc] [=CDF=c] [CDFc]>[B,DFB] [A,DFA] [A,DFA]>[G,EG]!<)!!f! [^G,=B,=G] [G,B,G]>[G,^B,F] | %10
!p! [FB=df]!<(! [FBdf]>[E=Ge] [^DFA^d] [DFAd]>[CEAc] [=CFA=c] [CFAc]>[B,^GB] [^A,^^CG^A] [A,CGA]>[B,D=A]!<)! | %11
!f! [=CE=G] [G=ce=g]>[Gceg] [GBg] [Bdb]>[Bdb] [CEG] [Gceg]>[Gceg] [GBg] [Bdgb]>[Bdgb] | %12
 [=CE=G] [G=ce]>[Gce] [Gce] [Gc=f]>[Gcf] [Gcf] [Gc^f]>[Gcf] [Gcf] [G^Ae=g]>[GAeg] | %13
 [=G^Ae=g]!<(! [^Ge^g]>[Geg] [Geg] [^Ae^a]>[Aea] [Aea] [Beb]>[Beb] [Beb] [Bdb]>[Bdb]!<)! | %14
!ff! [Beb] [ge'g']>[ge'g'] [ge'g'] [Beb]>[Beb] [Beb] [ge'g']>[ge'g'] [ge'g'] !>!E!>!F | %15
!p! [^B,DG]!<(! [B,DG]>[B,DG] [B,DG]>[B,DG][B,DG] [^A,D^^F^A] [A,DFA]>[A,DFA]!<)!!f! [A,DFA]>[A,DFA][A,DFA] | %16
!p!!<(! [D^FB] [DFB]>[DFB] [DFB]>[DFB][DFB]!<)!!f! [CF^Ac] [CFAc]>[CFAc] [CFAc]>[CFAc][CFAc] | %17
 [F=A=df] [FAdf]>[FAdf] [F^Acf] [FAcf]>[FAcf] [F=Adf] [FAdf]>[FAdf]!ff! [=G^Ae=g] [GAeg]>[GAeg] || %18
[M:3/8] [=G^Ae=g]>[GAeg][GAeg] || %19
[M:12/8]!f! [^Ge^g] [Geg]>[Geg] [Aea] [Aea]>[Aea] [^Ae^a] [Beb]>[^Be^b] [Beb] [cec']>[cec'] | %20
 [cec']!8va(!!<(! [eac'e']>[eac'e'] [eac'e'] [ac'e'a']>[ac'e'a'] [ac'e'a'] [ae'f']>[ae'f'] [ae'f'] [abd'b']>[abd'b']!<)! | %21
!ff! [be'g'b']!8va)! [Begb]>[Begb] [Begb] [gbe'g']>[gbe'g'] [gbe'g'] [Begb]>[Begb] [Begb] [ge'g']>[ge'g'] | %22
 [ge'g'] ([Beb]>[ge'g']) [ge'g'] ([Beb]>[ge'g']) [ge'g'] ([Beb]>[ge'g']) [ge'g'] ([Beb]>[ge'g']) | %23
 [ge'g'] z z z2 z z6 |] %24
V:4
 z2 z .=F F>F .[E^F] [EF]>[EF] .[B,D] [B,D]>[B,D] | %1
 z2 z .=F F>F .[E^F] [EF]>[EF] .[B,F] [B,F]>[B,F] | z2 z .=F F>F .[E^F] [EF]>[EF] .[DF] [DF]>[DF] | %3
 [B,F] [B,F]>[B,F] [A,E] [A,E]>[A,E][K:bass] [F,CE] [F,CE]>[F,CE] [B,,F,A,B,] [B,,F,A,B,]>[B,,F,A,B,] | %4
[K:treble] E E>E E E>[EG] [EG] [EF]>E E [DE]>[=DE] | %5
 [=DA] [DA]>[DA] [D^A] [DA]>[DB] [DB] [DB]>[DB] [D=A] [DA]>[DG] | %6
 [G^B] [GB]>[GB] [CAc] [CAc]>[CAc] [GB] [GB]>[GB] [CAc] [CAc]>[CAc] | %7
 [=C=G=c] [CGc]>[CGc] [B,EB] [B,EB]>[B,EB] [DBd] [DBd]>[DBd] [D^Ad] [DAd]>[DAd] | %8
 [Gd] [Gd]>[Gd] [Gd] [Gd]>[Gd] [Gd][K:bass] [G,D]>[G,D] [G,D] !>![^^F,,,^^F,,]!>![G,,,G,,] | %9
 [^F,,,^F,,] [F,,,F,,]>[G,,,G,,] [A,,,A,,] [A,,,A,,]>[B,,,B,,] [^B,,,^B,,] [B,,,B,,]>[C,,C,] [^^C,,^^C,] [C,,C,]>[D,,D,] | %10
 [G,,,G,,] [G,,,G,,]>[^A,,,^A,,] [B,,,B,,] [B,,,B,,]>[C,,C,] [D,,D,] [D,,D,]>[E,,E,] [^E,,^E,] [E,,E,]>[F,,F,] | %11
 [=G,,=C,=G,] [=CE]>[CE] [B,^D] [G,,D,G,]>[G,,D,G,] [G,,C,G,] [CE]>[CE] [B,D] [G,,D,G,]>[G,,D,G,] | %12
 [=G,,=C,=G,][K:treble] [=CE]>[CE] [CE] [C=F]>[CF] [CF] [C^F]>[CF] [CF] [CE]>[CE] | %13
 [=CE] [B,EB]>[B,EB] [B,EB] [B,EB]>[B,EB] [B,EB] [B,F=A]>[B,FA] [B,FA] [B,FA]>[B,FA] | %14
 [EG][K:bass] [E,,B,,E,]>[E,,B,,E,] [E,,B,,E,] [EG]>[EG] [EG] [E,,B,,E,]>[E,,B,,E,] [E,,B,,E,] !>![E,,E,]!>![F,,F,] | %15
 [G,,D,G,] [G,,D,G,]>[G,,D,G,] [G,,D,G,]>[G,,D,G,][G,,D,G,] [D,,^A,,D,] [D,,A,,D,]>[D,,A,,D,] [D,,A,,D,]>[D,,A,,D,][D,,A,,D,] | %16
 [B,,F,B,] [B,,F,B,]>[B,,F,B,] [B,,F,B,]>[B,,F,B,][B,,F,B,] [F,,C,F,] [F,,C,F,]>[F,,C,F,] [F,,C,F,]>[F,,C,F,][F,,C,F,] | %17
!f! [=D,,A,,=D,] [D,,A,,D,]>[D,,A,,D,] [F,,C,F,] [F,,C,F,]>[F,,C,F,] [D,,A,,D,] [D,,A,,D,]>[D,,A,,D,] [=C,,=G,,=C,] [C,,G,,C,]>[C,,G,,C,] || %18
[M:3/8] [=C,,=G,,=C,]>[C,,G,,C,][C,,G,,C,] || %19
[M:12/8] [B,,,E,,B,,] [B,,E,B,]>[B,,E,B,] [=C,E,=C] [C,E,C]>[C,E,C] [G,,E,G,] [G,,E,G,]>[G,,E,G,] [A,,E,A,] [A,,E,A,]>[A,,E,A,] | %20
 [B,,E,B,][K:treble] [B,EA]>[B,EA] [B,EA] [B,FA]>[B,FA] [B,FA] [B,FB]>[B,FB] [B,FB][K:bass] [B,,F,B,]>[B,,F,B,] | %21
 [E,,B,,E,] [EG]>[EG] [EG] [E,,B,,E,]>[E,,B,,E,] [E,,B,,E,] [EG]>[EG] [EG] [E,,B,,E,]>[E,,B,,E,] | %22
 [E,,B,,E,] [EG]>[E,,B,,E,] [E,,B,,E,] [EG]>[E,,B,,E,] [E,,B,,E,] [EG]>[E,,B,,E,] [E,,B,,E,] [EG]>[E,,B,,E,] | %23
 [E,,B,,E,] z z z2 z z6 |] %24

